X: 3297
T: Bell Of Ardclach, The
R: march
M: 
K: Gmajor
M:2/4
AB d2||g2 f2|e3d|d2 A2|B3 A|Bc d2|G3B|F2 GA|c2B2|
d3G|ed cB|A2 Bc|B2-B2|E2-E2|B2 BA|A4-|A2 AG|AB d2|
e3d|d2 A2|B3 A|Bc d2|G3B|F2 GA|c2B2|
d3G|ed cB|A2 Bc|B2-B2|E2-E2|B2 BA|A4-|A4||
BE GB|cE Gc|BD GB|AA GA|BE GB|c2 Bc|dG Ad|A2 dc|
[1 BE GB|cE Gc|BD GB|AA GA|Bc dG|ee dB|A4-|A2 dc:|
[2 BE GB|cE Gc|BD GA-|AG AB-|BA Bc-|cB cd-|de fd|fg A'B'||

